src/lib/packages/icons/src/assets/line/sticky-note-circle.svg

<svg width="24" height="24" viewBox="0 0 24 24" fill="none" xmlns="http://www.w3.org/2000/svg">
<path d="M12.1851 1.25H11.8159C5.98992 1.25 1.25098 5.98894 1.25098 11.8149V12.1851C1.25098 18.0111 5.98992 22.75 11.8159 22.75C13.7469 22.75 15.563 21.998 16.929 20.632L20.6321 16.929C21.9981 15.564 22.75 13.7469 22.75 11.8149C22.75 5.98894 18.0111 1.25 12.1851 1.25ZM2.75 12.1851V11.8149C2.75 6.81594 6.81594 2.75 11.8149 2.75H12.1841C17.1831 2.75 21.249 6.81594 21.249 11.8149C21.249 12.3879 21.14 12.939 20.978 13.472H18.666C15.802 13.472 13.4719 15.802 13.4719 18.666V20.979C12.9389 21.14 12.3879 21.25 11.8149 21.25C6.81594 21.25 2.75 17.1841 2.75 12.1851ZM15.8679 19.571C15.5919 19.847 15.2909 20.09 14.9719 20.301V18.666C14.9719 16.629 16.629 14.972 18.666 14.972H20.301C20.09 15.291 19.8471 15.592 19.5701 15.868L15.8679 19.571Z" fill="currentColor"/>
</svg>

<svg xmlns="http://www.w3.org/2000/svg" width="24" height="24" fill="none"><path fill="currentColor" d="M12.185 1.25h-.37C5.99 1.25 1.252 5.989 1.252 11.815v.37c0 5.826 4.739 10.565 10.565 10.565a7.184 7.184 0 0 0 5.113-2.118l3.703-3.703a7.183 7.183 0 0 0 2.118-5.114c0-5.826-4.739-10.565-10.565-10.565ZM2.75 12.185v-.37c0-5 4.066-9.065 9.065-9.065h.37c4.998 0 9.064 4.066 9.064 9.065a5.68 5.68 0 0 1-.271 1.657h-2.312a5.2 5.2 0 0 0-5.194 5.194v2.313c-.533.161-1.084.271-1.657.271-5 0-9.065-4.066-9.065-9.065Zm13.118 7.386a5.756 5.756 0 0 1-.896.73v-1.635a3.698 3.698 0 0 1 3.694-3.694h1.635c-.211.319-.454.62-.73.896l-3.703 3.703Z"/></svg>
